; generated by SuperSlicer 2.4 on 2023-06-08 at 07:01:13 UTC


;
;

;
;
; 

; external perimeters extrusion width = 0.42mm
; perimeters extrusion width = 0.42mm
; infill extrusion width = 0.50mm
; solid infill extrusion width = 0.42mm
; top infill extrusion width = 0.42mm

; external perimeters extrusion width = 0.42mm
; perimeters extrusion width = 0.42mm
; infill extrusion width = 0.50mm
; solid infill extrusion width = 0.42mm
; top infill extrusion width = 0.42mm

; object:{"name":"Shape-Box","id":"Shape-Box id:0 copy 0","object_center":[108.762888,77.093300,0.000000],"boundingbox_center":[108.762888,77.093300,12.500000],"boundingbox_size":[25.000000,25.000000,25.000000]}
; object:{"name":"Shape-Box","id":"Shape-Box id:1 copy 0","object_center":[73.813622,77.886576,0.000000],"boundingbox_center":[73.813622,77.886576,12.500000],"boundingbox_size":[25.000000,25.000000,25.000000]}
; plater:{"center":[91.288255,77.489938,0.000000],"boundingbox_center":[91.288255,77.489938,12.500000],"boundingbox_size":[59.949266,25.793276,25.000000]}

M73 P0 R106
;TYPE:Custom
; custom gcode: start_gcode
GIANO_START_PRINT EXTRUDER_TEMP=250 BED_TEMP=90 CHAMBER_TEMP=0 TOOL=0 WIPE_TOWER=true WIPE_TOWER_X=20.4303 WIPE_TOWER_Y=18.17 WIPE_TOWER_WIDTH=60 WIPE_TOWER_ROTATION_ANGLE=0 COOLING_TUBE_RETRACTION=0 COOLING_TUBE_LENGTH=0 PARKING_POS_RETRACTION=0 EXTRA_LOADING_MOVE=0
; custom gcode end: start_gcode
; custom gcode: toolchange_gcode
CHANGE_TOOL TOOL=0
; custom gcode end: toolchange_gcode
;_TOOLCHANGE 0
M104 S250 ; set temperature
; custom gcode: start_filament_gcode
; Filament gcode
; custom gcode end: start_filament_gcode
G1 Z0.2 F18000
;LAYER_CHANGE
;Z:0.2
;HEIGHT:0.2
; custom gcode: before_layer_gcode
;BEFORE_LAYER_CHANGE




; custom gcode end: before_layer_gcode

M73 P0 R105
G1 E-0.35 F1800
G1 Z0.35 F18000
; custom gcode: layer_gcode
;AFTER_LAYER_CHANGE
; custom gcode end: layer_gcode

G92 E0
; printing object Shape-Box id:0 copy 0
M204 S4000
G1 X97.754 Y66.085
G1 Z0.2
G1 E0.35 F1800
;TYPE:Internal perimeter
;WIDTH:0.42
;HEIGHT:0.2
G1 F6000
G1 X119.772 Y66.085 E0.64202
G1 X119.772 Y88.102 E0.64202
G1 X97.754 Y88.102 E0.64202
G1 X97.754 Y66.145 E0.64027
;WIPE_START
G1 X98.921 Y66.141 E-0.3325
;WIPE_END
G1 E-0.0175 F1800
G1 Z0.35 F18000
G1 X97.377 Y65.707
G1 Z0.2
G1 E0.35 F1800
G1 F6000
G1 X120.149 Y65.707 E0.66401
G1 X120.149 Y88.479 E0.66401
G1 X97.377 Y88.479 E0.66401
G1 X97.377 Y65.767 E0.66226
;WIPE_START
G1 X98.544 Y65.764 E-0.3325
;WIPE_END
G1 E-0.0175 F1800
G1 Z0.35 F18000
G1 X97 Y65.33
G1 Z0.2
G1 E0.35 F1800
G1 F6000
G1 X120.526 Y65.33 E0.686
G1 X120.526 Y88.856 E0.686
G1 X97 Y88.856 E0.686
G1 X97 Y65.39 E0.68425
;WIPE_START
G1 X98.167 Y65.387 E-0.3325
;WIPE_END
G1 E-0.0175 F1800
G1 Z0.35 F18000
G1 X96.623 Y64.953
G1 Z0.2
G1 E0.35 F1800
;TYPE:External perimeter
G1 F6000
G1 X120.903 Y64.953 E0.70799
G1 X120.903 Y89.233 E0.70799
G1 X96.623 Y89.233 E0.70799
G1 X96.623 Y65.013 E0.70624
;WIPE_START
G1 X96.969 Y65.153 F18000
;WIPE_END
;WIPE_START
G1 F6000
G1 X98.136 Y65.153 E-0.3325
;WIPE_END
G1 E-0.0175 F1800
G1 Z0.35 F18000
G1 X118.877 Y66.216
G1 Z0.2
G1 E0.35 F1800
;TYPE:Solid infill
G1 F6000
G1 X119.478 Y66.817 E0.02475
G1 X119.478 Y67.35 E0.01555
G1 X118.506 Y66.379 E0.04005
G1 X117.973 Y66.379 E0.01555
G1 X119.478 Y67.883 E0.06204
G1 X119.478 Y68.416 E0.01555
G1 X117.44 Y66.379 E0.08403
G1 X116.906 Y66.379 E0.01555
G1 X119.478 Y68.95 E0.10602
G1 X119.478 Y69.483 E0.01555
G1 X116.373 Y66.379 E0.12802
G1 X115.84 Y66.379 E0.01555
G1 X119.478 Y70.016 E0.15001
G1 X119.478 Y70.55 E0.01555
G1 X115.307 Y66.379 E0.172
G1 X114.773 Y66.379 E0.01555
G1 X119.478 Y71.083 E0.19399
G1 X119.478 Y71.616 E0.01555
G1 X114.24 Y66.379 E0.21598
G1 X113.707 Y66.379 E0.01555
G1 X119.478 Y72.149 E0.23797
G1 X119.478 Y72.683 E0.01555
G1 X113.174 Y66.379 E0.25996
G1 X112.64 Y66.379 E0.01555
G1 X119.478 Y73.216 E0.28195
G1 X119.478 Y73.749 E0.01555
G1 X112.107 Y66.379 E0.30394
G1 X111.574 Y66.379 E0.01555
G1 X119.478 Y74.282 E0.32593
G1 X119.478 Y74.816 E0.01555
G1 X111.041 Y66.379 E0.34792
G1 X110.507 Y66.379 E0.01555
G1 X119.478 Y75.349 E0.36992
G1 X119.478 Y75.882 E0.01555
G1 X109.974 Y66.379 E0.39191
G1 X109.441 Y66.379 E0.01555
G1 X119.478 Y76.415 E0.4139
G1 X119.478 Y76.949 E0.01555
G1 X108.907 Y66.379 E0.43589
G1 X108.374 Y66.379 E0.01555
G1 X119.478 Y77.482 E0.45788
G1 X119.478 Y78.015 E0.01555
G1 X107.841 Y66.379 E0.47987
G1 X107.308 Y66.379 E0.01555
G1 X119.478 Y78.549 E0.50186
G1 X119.478 Y79.082 E0.01555
G1 X106.774 Y66.379 E0.52385
G1 X106.241 Y66.379 E0.01555
G1 X119.478 Y79.615 E0.54584
G1 X119.478 Y80.148 E0.01555
G1 X105.708 Y66.379 E0.56783
G1 X105.175 Y66.379 E0.01555
G1 X119.478 Y80.682 E0.58982
G1 X119.478 Y81.215 E0.01555
G1 X104.641 Y66.379 E0.61181
G1 X104.108 Y66.379 E0.01555
G1 X119.478 Y81.748 E0.63381
G1 X119.478 Y82.281 E0.01555
G1 X103.575 Y66.379 E0.6558
G1 X103.041 Y66.379 E0.01555
G1 X119.478 Y82.815 E0.67779
G1 X119.478 Y83.348 E0.01555
G1 X102.508 Y66.379 E0.69978
G1 X101.975 Y66.379 E0.01555
G1 X119.478 Y83.881 E0.72177
G1 X119.478 Y84.415 E0.01555
G1 X101.442 Y66.379 E0.74376
G1 X100.908 Y66.379 E0.01555
G1 X119.478 Y84.948 E0.76575
G1 X119.478 Y85.481 E0.01555
G1 X100.375 Y66.379 E0.78774
G1 X99.842 Y66.379 E0.01555
G1 X119.478 Y86.014 E0.80973
G1 X119.478 Y86.548 E0.01555
G1 X99.309 Y66.379 E0.83172
G1 X98.775 Y66.379 E0.01555
G1 X119.478 Y87.081 E0.85371
G1 X119.478 Y87.614 E0.01555
G1 X98.242 Y66.379 E0.87571
G1 X98.048 Y66.379 E0.00565
G1 X98.048 Y66.718 E0.0099
G1 X119.138 Y87.808 E0.8697
G1 X118.605 Y87.808 E0.01555
G1 X98.048 Y67.251 E0.84771
G1 X98.048 Y67.785 E0.01555
G1 X118.072 Y87.808 E0.82572
G1 X117.538 Y87.808 E0.01555
G1 X98.048 Y68.318 E0.80373
G1 X98.048 Y68.851 E0.01555
G1 X117.005 Y87.808 E0.78174
G1 X116.472 Y87.808 E0.01555
G1 X98.048 Y69.384 E0.75974
G1 X98.048 Y69.918 E0.01555
G1 X115.938 Y87.808 E0.73775
G1 X115.405 Y87.808 E0.01555
G1 X98.048 Y70.451 E0.71576
G1 X98.048 Y70.984 E0.01555
G1 X114.872 Y87.808 E0.69377
G1 X114.339 Y87.808 E0.01555
G1 X98.048 Y71.518 E0.67178
G1 X98.048 Y72.051 E0.01555
G1 X113.805 Y87.808 E0.64979
G1 X113.272 Y87.808 E0.01555
G1 X98.048 Y72.584 E0.6278
G1 X98.048 Y73.117 E0.01555
G1 X112.739 Y87.808 E0.60581
G1 X112.206 Y87.808 E0.01555
G1 X98.048 Y73.651 E0.58382
G1 X98.048 Y74.184 E0.01555
G1 X111.672 Y87.808 E0.56183
G1 X111.139 Y87.808 E0.01555
G1 X98.048 Y74.717 E0.53984
G1 X98.048 Y75.25 E0.01555
G1 X110.606 Y87.808 E0.51785
G1 X110.073 Y87.808 E0.01555
G1 X98.048 Y75.784 E0.49585
G1 X98.048 Y76.317 E0.01555
G1 X109.539 Y87.808 E0.47386
G1 X109.006 Y87.808 E0.01555
G1 X98.048 Y76.85 E0.45187
G1 X98.048 Y77.383 E0.01555
G1 X108.473 Y87.808 E0.42988
G1 X107.939 Y87.808 E0.01555
G1 X98.048 Y77.917 E0.40789
G1 X98.048 Y78.45 E0.01555
G1 X107.406 Y87.808 E0.3859
G1 X106.873 Y87.808 E0.01555
G1 X98.048 Y78.983 E0.36391
G1 X98.048 Y79.517 E0.01555
G1 X106.34 Y87.808 E0.34192
G1 X105.806 Y87.808 E0.01555
G1 X98.048 Y80.05 E0.31993
G1 X98.048 Y80.583 E0.01555
G1 X105.273 Y87.808 E0.29794
G1 X104.74 Y87.808 E0.01555
G1 X98.048 Y81.116 E0.27595
G1 X98.048 Y81.65 E0.01555
G1 X104.207 Y87.808 E0.25395
G1 X103.673 Y87.808 E0.01555
G1 X98.048 Y82.183 E0.23196
G1 X98.048 Y82.716 E0.01555
G1 X103.14 Y87.808 E0.20997
G1 X102.607 Y87.808 E0.01555
G1 X98.048 Y83.249 E0.18798
G1 X98.048 Y83.783 E0.01555
G1 X102.073 Y87.808 E0.16599
G1 X101.54 Y87.808 E0.01555
G1 X98.048 Y84.316 E0.144
G1 X98.048 Y84.849 E0.01555
G1 X101.007 Y87.808 E0.12201
G1 X100.474 Y87.808 E0.01555
G1 X98.048 Y85.383 E0.10002
G1 X98.048 Y85.916 E0.01555
G1 X99.94 Y87.808 E0.07803
G1 X99.407 Y87.808 E0.01555
G1 X98.048 Y86.449 E0.05604
G1 X98.048 Y86.982 E0.01555
G1 X98.874 Y87.808 E0.03405
G1 X98.341 Y87.808 E0.01555
G1 X97.886 Y87.353 E0.01874
;WIPE_START
G1 X98.341 Y87.808 E-0.18318
G1 X98.864 Y87.808 E-0.14932
;WIPE_END
G1 E-0.0175 F1800
G1 Z0.35 F18000
; stop printing object Shape-Box id:0 copy 0
G1 X80.18 Y33.06
G1 Z0.2
G1 E0.35 F1800
; custom gcode: tcr_rotated_gcode
;HEIGHT:0.2
;TYPE:Wipe tower
;WIDTH:0.5
;--------------------
; CP TOOLCHANGE START
; toolchange #1
; material : ASA -> ASA
;--------------------
M220 S100
; CP TOOLCHANGE UNLOAD
;WIDTH:0.6
G1  X79.680 Y32.730  
SET_PRESSURE_ADVANCE ADVANCE=0
G1 F2866
G1  X67.737  E0.5532
G1 F2936
G1  X55.504  E0.5666
G1 F3057
G1  X42.765  E0.5901
G1 F3231
G1  X29.302  E0.6236
G1 F3492
G1  X21.180  E0.3762
G1  Y32.070  F7200
G1 F3492
G1  X27.607  E0.2977
G1 F3839
G1  X43.603  E0.741
G1 F4256
G1  X61.337  E0.8214
G1 F4690
G1  X79.680  E0.8497
G1  Y31.410  F7200
G1 F4690
G1  X78.480  E0.0556
G1 F5055
G1  X57.417  E0.9757
G1 F5298
G1  X35.340  E1.0226
G1 F5437
G1  X21.180  E0.6559
G1  Y30.750  F7200
G1 F5437
G1  X29.675  E0.3935
G1 F5507
G1  X52.620  E1.0628
;WIDTH:0.5
M104 S250
G1  Y30.090 
G1 F3000
G1 F-2147483648
G1 F3000
G1 F-2147483648
G1 F3000
G1 F-2147483648
G1 F3000
G1 F-2147483648
; SKINNYDIP START
G1 E24 F1980
G4 P0
G1 E-24 F4200
G4 P0
; SKINNYDIP END
G1 F2000
G1  Y30.170  F2400
G4 S0
; custom gcode: end_filament_gcode
; Filament-specific end gcode 
;END gcode for filament
; custom gcode end: end_filament_gcode

; custom gcode: toolchange_gcode
CHANGE_TOOL TOOL=1
; custom gcode end: toolchange_gcode

G1 F18000
G1  X52.621 Y30.170  
; custom gcode: start_filament_gcode
; Filament gcode
; custom gcode end: start_filament_gcode

G1  X52.621 Y30.170 Z0.2
G4 S0
M220 S250
G1  Y30.670 
M220 S250
; CP TOOLCHANGE WIPE
G1  X79.430  E1.2023 F4950
M220 S100
G1 F18000
G4 S0
G92 E0
; CP TOOLCHANGE END
;------------------


G1  X79.930 Y18.670   F7200
;HEIGHT:0.2
;TYPE:Wipe tower
;WIDTH:0.5
G1  Y30.170  E0.4371 F6000
G1  X20.930  E2.2424
G1  Y18.670  E0.4371
G1  X79.930  E2.2424
G1  Y30.170 
G1  X78.930 
;--------------------
; CP EMPTY GRID START
; layer #1
G1  Y29.670  E0.019
G1  X21.430  E2.1854
G1  Y29.170  E0.019
G1  X79.430  E2.2044
G1  Y28.670  E0.019
G1  X21.430  E2.2044
G1  Y28.170  E0.019
G1  X79.430  E2.2044
G1  Y27.670  E0.019
G1  X21.430  E2.2044
G1  Y27.170  E0.019
G1  X79.430  E2.2044
G1  Y26.670  E0.019
G1  X21.430  E2.2044
G1  Y26.170  E0.019
G1  X79.430  E2.2044
G1  Y25.670  E0.019
G1  X21.430  E2.2044
G1  Y25.170  E0.019
G1  X79.430  E2.2044
G1  Y24.670  E0.019
G1  X21.430  E2.2044
G1  Y24.170  E0.019
G1  X79.430  E2.2044
G1  Y23.670  E0.019
G1  X21.430  E2.2044
G1  Y23.170  E0.019
G1  X79.430  E2.2044
G1  Y22.670  E0.019
G1  X21.430  E2.2044
G1  Y22.170  E0.019
G1  X79.430  E2.2044
G1  Y21.670  E0.019
G1  X21.430  E2.2044
G1  Y21.170  E0.019
G1  X79.430  E2.2044
G1  Y20.670  E0.019
G1  X21.430  E2.2044
M73 P1 R105
G1  Y20.170  E0.019
G1  X79.430  E2.2044
G1  Y19.670  E0.019
G1  X21.430  E2.2044
G1  Y19.170  E0.019
G1  X79.430  E2.2044
G1  Y18.670  E0.019
; CP EMPTY GRID END
;------------------






G1  X80.430 
G1  Y18.170 
G1  Y33.310  E0.5754
G1  X20.430  E2.2804
G1  Y18.170  E0.5754
G1  X80.430  E2.2804
;-------------------------------------
; CP WIPE TOWER FIRST LAYER BRIM START
G1  X80.764 
G1  Y17.836 
G1  Y33.644  E0.4957
G1  X20.096  E1.9022
G1  Y17.836  E0.4957
G1  X80.764  E1.9022
G1  X81.141 
G1  Y17.459 
G1  Y34.021  E0.5193
G1  X19.719  E1.9259
M73 P1 R104
G1  Y17.459  E0.5193
G1  X81.141  E1.9259
G1  X81.518 
G1  Y17.082 
G1  Y34.398  E0.543
G1  X19.342  E1.9495
G1  Y17.082  E0.543
G1  X81.518  E1.9495
G1  X81.895 
G1  Y16.705 
G1  Y34.775  E0.5666
G1  X18.965  E1.9732
G1  Y16.705  E0.5666
G1  X81.895  E1.9732
G1  X82.272 
G1  Y16.328 
G1  Y35.152  E0.5902
G1  X18.588  E1.9968
G1  Y16.328  E0.5902
G1  X82.272  E1.9968
; CP WIPE TOWER FIRST LAYER BRIM END
;-----------------------------------

; custom gcode end: tcr_rotated_gcode
;WIPE_START
G1 X82.273 Y17.494 E-0.3325
;WIPE_END
G1 E-0.0175 F1800
G1 Z0.35 F18000
; printing object Shape-Box id:1 copy 0
G1 X84.822 Y66.878
G1 Z0.2
G1 E0.35 F1800
;TYPE:Internal perimeter
;WIDTH:0.42
;HEIGHT:0.2
G1 F6000
G1 X84.822 Y88.895 E0.64202
G1 X62.805 Y88.895 E0.64202
G1 X62.805 Y66.878 E0.64202
G1 X84.762 Y66.878 E0.64027
;WIPE_START
G1 X84.766 Y68.044 E-0.3325
;WIPE_END
G1 E-0.0175 F1800
G1 Z0.35 F18000
G1 X85.199 Y66.501
G1 Z0.2
G1 E0.35 F1800
G1 F6000
G1 X85.199 Y89.272 E0.66401
G1 X62.428 Y89.272 E0.66401
G1 X62.428 Y66.501 E0.66401
G1 X85.139 Y66.501 E0.66226
;WIPE_START
G1 X85.143 Y67.667 E-0.3325
;WIPE_END
G1 E-0.0175 F1800
G1 Z0.35 F18000
G1 X85.577 Y66.124
G1 Z0.2
G1 E0.35 F1800
G1 F6000
G1 X85.577 Y89.649 E0.686
G1 X62.051 Y89.649 E0.686
G1 X62.051 Y66.124 E0.686
G1 X85.517 Y66.124 E0.68425
;WIPE_START
G1 X85.52 Y67.29 E-0.3325
;WIPE_END
G1 E-0.0175 F1800
G1 Z0.35 F18000
G1 X85.954 Y65.747
G1 Z0.2
G1 E0.35 F1800
;TYPE:External perimeter
G1 F6000
G1 X85.954 Y90.027 E0.70799
G1 X61.674 Y90.027 E0.70799
G1 X61.674 Y65.747 E0.70799
G1 X85.894 Y65.747 E0.70624
;WIPE_START
G1 X85.754 Y66.093 F18000
;WIPE_END
;WIPE_START
G1 F6000
G1 X85.754 Y67.26 E-0.3325
;WIPE_END
G1 E-0.0175 F1800
G1 Z0.35 F18000
G1 X83.928 Y67.01
G1 Z0.2
G1 E0.35 F1800
;TYPE:Solid infill
G1 F6000
G1 X84.528 Y67.61 E0.02475
G1 X84.528 Y68.143 E0.01555
G1 X83.557 Y67.172 E0.04005
G1 X83.024 Y67.172 E0.01555
G1 X84.528 Y68.676 E0.06204
G1 X84.528 Y69.21 E0.01555
G1 X82.49 Y67.172 E0.08403
G1 X81.957 Y67.172 E0.01555
G1 X84.528 Y69.743 E0.10602
G1 X84.528 Y70.276 E0.01555
G1 X81.424 Y67.172 E0.12802
G1 X80.891 Y67.172 E0.01555
G1 X84.528 Y70.81 E0.15001
G1 X84.528 Y71.343 E0.01555
G1 X80.357 Y67.172 E0.172
G1 X79.824 Y67.172 E0.01555
G1 X84.528 Y71.876 E0.19399
G1 X84.528 Y72.409 E0.01555
G1 X79.291 Y67.172 E0.21598
G1 X78.758 Y67.172 E0.01555
G1 X84.528 Y72.943 E0.23797
G1 X84.528 Y73.476 E0.01555
G1 X78.224 Y67.172 E0.25996
G1 X77.691 Y67.172 E0.01555
G1 X84.528 Y74.009 E0.28195
G1 X84.528 Y74.542 E0.01555
G1 X77.158 Y67.172 E0.30394
G1 X76.625 Y67.172 E0.01555
G1 X84.528 Y75.076 E0.32593
G1 X84.528 Y75.609 E0.01555
G1 X76.091 Y67.172 E0.34792
G1 X75.558 Y67.172 E0.01555
G1 X84.528 Y76.142 E0.36992
G1 X84.528 Y76.675 E0.01555
G1 X75.025 Y67.172 E0.39191
G1 X74.491 Y67.172 E0.01555
G1 X84.528 Y77.209 E0.4139
G1 X84.528 Y77.742 E0.01555
G1 X73.958 Y67.172 E0.43589
G1 X73.425 Y67.172 E0.01555
G1 X84.528 Y78.275 E0.45788
G1 X84.528 Y78.809 E0.01555
G1 X72.892 Y67.172 E0.47987
G1 X72.358 Y67.172 E0.01555
G1 X84.528 Y79.342 E0.50186
G1 X84.528 Y79.875 E0.01555
G1 X71.825 Y67.172 E0.52385
G1 X71.292 Y67.172 E0.01555
G1 X84.528 Y80.408 E0.54584
G1 X84.528 Y80.942 E0.01555
G1 X70.759 Y67.172 E0.56783
G1 X70.225 Y67.172 E0.01555
G1 X84.528 Y81.475 E0.58982
G1 X84.528 Y82.008 E0.01555
G1 X69.692 Y67.172 E0.61181
G1 X69.159 Y67.172 E0.01555
G1 X84.528 Y82.541 E0.63381
G1 X84.528 Y83.075 E0.01555
G1 X68.625 Y67.172 E0.6558
G1 X68.092 Y67.172 E0.01555
G1 X84.528 Y83.608 E0.67779
G1 X84.528 Y84.141 E0.01555
G1 X67.559 Y67.172 E0.69978
G1 X67.026 Y67.172 E0.01555
G1 X84.528 Y84.675 E0.72177
G1 X84.528 Y85.208 E0.01555
G1 X66.492 Y67.172 E0.74376
G1 X65.959 Y67.172 E0.01555
G1 X84.528 Y85.741 E0.76575
G1 X84.528 Y86.274 E0.01555
G1 X65.426 Y67.172 E0.78774
G1 X64.893 Y67.172 E0.01555
G1 X84.528 Y86.808 E0.80973
G1 X84.528 Y87.341 E0.01555
G1 X64.359 Y67.172 E0.83172
G1 X63.826 Y67.172 E0.01555
G1 X84.528 Y87.874 E0.85371
G1 X84.528 Y88.407 E0.01555
G1 X63.293 Y67.172 E0.87571
G1 X63.099 Y67.172 E0.00565
G1 X63.099 Y67.511 E0.0099
G1 X84.189 Y88.601 E0.8697
G1 X83.656 Y88.601 E0.01555
G1 X63.099 Y68.045 E0.84771
G1 X63.099 Y68.578 E0.01555
G1 X83.122 Y88.601 E0.82572
G1 X82.589 Y88.601 E0.01555
G1 X63.099 Y69.111 E0.80373
G1 X63.099 Y69.644 E0.01555
G1 X82.056 Y88.601 E0.78174
G1 X81.522 Y88.601 E0.01555
G1 X63.099 Y70.178 E0.75974
G1 X63.099 Y70.711 E0.01555
G1 X80.989 Y88.601 E0.73775
G1 X80.456 Y88.601 E0.01555
G1 X63.099 Y71.244 E0.71576
G1 X63.099 Y71.778 E0.01555
G1 X79.923 Y88.601 E0.69377
G1 X79.389 Y88.601 E0.01555
G1 X63.099 Y72.311 E0.67178
G1 X63.099 Y72.844 E0.01555
G1 X78.856 Y88.601 E0.64979
G1 X78.323 Y88.601 E0.01555
G1 X63.099 Y73.377 E0.6278
G1 X63.099 Y73.911 E0.01555
G1 X77.79 Y88.601 E0.60581
G1 X77.256 Y88.601 E0.01555
G1 X63.099 Y74.444 E0.58382
G1 X63.099 Y74.977 E0.01555
G1 X76.723 Y88.601 E0.56183
G1 X76.19 Y88.601 E0.01555
G1 X63.099 Y75.51 E0.53984
G1 X63.099 Y76.044 E0.01555
